!!!OTL: Edelmann und Knecht (2-42) S. 135
!!!id: P0915
**kern
*clefG2
*k[b-]
*g:
{8d
=1
4g
8g
8g
8g
8a
=2
4b-
8b-
4a}
=3
{16g
16b-
=4
4.b-
4a
8b-
=5
8g
8g
8g
4g
8a
=6
4b-
8b-
4a}
=7
{16cc
16cc
=8
4g
16g
16g
4g
8g
=9
4.g
4a}
8r
=10
{4dd
8dd
8dd
8cc
8b-
=11
4.a
4g}
==
*-
!!!minrhy: 16
!!!meters: 6/8 ]  ZZ[4
!!!cut: Edelmann und Knecht (2-42) S. 135
!!!reg: Lothringen
!!!trd: PINCK, Louis: Verklingende Weisen, Bd 2, Metz 1928
!!!rhy1: X_  X__X_X_X_X_  X__X_X__
!!!rhy2: XX  X__.X__X_  X_X_X_X__X_  X__X_X__
!!!key: P0915  16  G 6/8 ]  ZZ[4
!!!mod: PENTATONIK MOLL ?]  AMBITUS[8
!!!kad: 2221
!!!akz: 113b2_3b2113b2_1112_5521_
!!!fot: 'a__b__aw_c__
!!!for: 'a__b__c__d__
!!!fok: '/__/__\__\__
!! PHRAS[VORWIEGEND AUFTAKTIG]
!!!fkt: Untreue, Beischlaf?
!! LOTH VKL
!! PR[38] 2K[3] 2G[3] 3K[3] 3G[4] 4A[9] 4Ü[0] 5A[0] 6K[0] 6G[1]
!! 7K[0] 7G[0] 8A[0] MEHR[0] SI[24] ABS[68] SR[6] SP[18]
!! ST[22] 2k[9] 2g[24] 3k[0] 3g[0] 4d[6] 4ü[0] 5d[0] 6k[0] 6g[0]
!! 7k[0] 7g[0] 8d[0] mehr[0] si[38] dm[-14] sr[32] sp[6]
!! 1F[81] 2F[10] 3F[0] 4F[0] LF[0] 2P[9] 3P[0] 4P[0] TRI[0] DF[3] AB[69]
!! TF[0] U3K[0] U3[0] U4[0] U4Ü[0] U5[10] U6K[0] U6[0] U7K[0] U7[3]
!! N1[14] N2K[0] N2[29] N3K[0] N3[32] N4[6] N4Ü[0] N5[6] N6K[0] N6[0]
!!!n7k: 0] N7[0] O1[0] O2K[0] O2[0] O3K[0] O3[0] HÖ[0
